packages/ffe-icons/icons/open/500/md/nest_heat_link_e.svg

<svg xmlns="http://www.w3.org/2000/svg" height="24" viewBox="0 -960 960 960" width="24"><path d="M479.949-74.5q-84.145 0-158.101-31.859-73.957-31.858-128.794-86.695-54.837-54.837-86.695-128.844-31.86-74.007-31.86-158.153 0-84.145 31.86-158.101 31.858-73.957 86.695-128.794 54.837-54.837 128.844-86.695Q395.905-885.5 480.051-885.5q84.145 0 158.101 31.859 73.957 31.858 128.794 86.695 54.837 54.837 86.695 128.844Q885.5-564.094 885.5-479.949t-31.859 158.101q-31.858 73.957-86.695 128.794-54.837 54.837-128.844 86.695-74.008 31.86-158.153 31.86Zm.145-91q130.754 0 222.58-91.921 91.826-91.92 91.826-222.673 0-130.754-91.871-222.58Q610.758-794.5 480.074-794.5q-130.683 0-222.628 91.871Q165.5-610.758 165.5-480.074q0 130.683 91.921 222.628 91.92 91.946 222.673 91.946ZM480-318.087q-66.957 0-114.435-47.478Q318.087-413.043 318.087-480t47.478-114.435Q413.043-641.913 480-641.913t114.435 47.478Q641.913-546.957 641.913-480t-47.478 114.435Q546.957-318.087 480-318.087Z"/></svg>

<svg xmlns="http://www.w3.org/2000/svg" height="24" viewBox="0 -960 960 960" width="24"><path d="M479.95-74.5q-84.15 0-158.1-31.86-73.96-31.86-128.8-86.69-54.83-54.84-86.69-128.85Q74.5-395.91 74.5-480.05q0-84.15 31.86-158.1 31.86-73.96 86.69-128.8 54.84-54.83 128.85-86.69 74.01-31.86 158.15-31.86 84.15 0 158.1 31.86 73.96 31.86 128.8 86.69 54.83 54.84 86.69 128.85 31.86 74.01 31.86 158.15 0 84.15-31.86 158.1-31.86 73.96-86.69 128.8-54.84 54.83-128.85 86.69Q564.09-74.5 479.95-74.5Zm.14-91q130.76 0 222.58-91.92 91.83-91.92 91.83-222.67 0-130.76-91.87-222.58-91.87-91.83-222.56-91.83-130.68 0-222.62 91.87-91.95 91.87-91.95 222.56 0 130.68 91.92 222.62 91.92 91.95 222.67 91.95ZM480-318.09q-66.96 0-114.43-47.48-47.48-47.47-47.48-114.43 0-66.96 47.48-114.43 47.47-47.48 114.43-47.48 66.96 0 114.43 47.48 47.48 47.47 47.48 114.43 0 66.96-47.48 114.43-47.47 47.48-114.43 47.48Z"/></svg>
